X: 1
T: Harry's Loch
M: 6/8
L: 1/8
R: jig
K: Amix
e2A BAG|EAA ABd|e2A ~B2A|BGF GBd|
e2A BAG|EAA ABd|efg dBA|BGF G|1 Bd:|2 Bd||
|:g2g efg|eag fed|g2g eag|fd^c def|
|1 gfg efg|eag fed|efg dBA|BGF G Bd:|2 ~g3 a2a|b2a ged|efg dBA|BGF G Bd||
